X: 18020
T: Huish The Cat
R: jig
M: 6/8
K: Ddorian
A|:D3 D2A|AGE c3|D3 D2A|AGE G2E|
D3 D2A|AGE c3|ABc dcA|1 AGE G2E:|2 AGE E2D||
|:dcA AGE|AGE c2A|dcA AGE|AGE E2D|
dcA AGE|AGE c3|ABc dcA|1 AGE E2D:|2 AGEJG2E||
A|:D3 D2A|AGE c3|D3 D3|AGE G2E|
D3 D2A|AGE c3|ABc dcA|1 AGEJG2E:|2 AGE E2D||
|:dcA AGE|AGE c2A|dcA AGE|AGE E2D|
dcA AGE|AGE c3|ABc dcA|1 AGE E2D:|2 AGEJG2E||

